icons/svg/picture-in-picture-exit.svg

<svg width="24" height="24" viewBox="0 0 24 24" fill="none" xmlns="http://www.w3.org/2000/svg">
<path d="M14.75 5.75H18.25C19.9069 5.75 21.25 7.09315 21.25 8.75V17.25C21.25 18.9069 19.9069 20.25 18.25 20.25H5.75C4.09315 20.25 2.75 18.9069 2.75 17.25V13.75" stroke="currentColor" stroke-width="1.5" stroke-linecap="round" stroke-linejoin="round"/>
<rect x="13" y="12" width="12" height="10" rx="2" transform="rotate(180 13 12)" fill="currentColor"/>
<path d="M18 13.6667V16.4001C18 16.5658 17.9329 16.7157 17.8243 16.8243M14.6667 17.0001H17.4C17.5657 17.0001 17.7157 16.9329 17.8243 16.8243M14 13L17 16L17.8243 16.8243" stroke="currentColor" stroke-width="1.5" stroke-linecap="round" stroke-linejoin="round"/>
</svg>

<svg xmlns="http://www.w3.org/2000/svg" width="24" height="24" fill="none" viewBox="0 0 24 24"><path stroke="currentColor" stroke-linecap="round" stroke-linejoin="round" stroke-width="1.5" d="M14.75 5.75h3.5a3 3 0 0 1 3 3v8.5a3 3 0 0 1-3 3H5.75a3 3 0 0 1-3-3v-3.5"/><rect width="12" height="10" x="13" y="12" fill="currentColor" rx="2" transform="rotate(180 13 12)"/><path stroke="currentColor" stroke-linecap="round" stroke-linejoin="round" stroke-width="1.5" d="M18 13.667V16.4a.6.6 0 0 1-.176.424M14.667 17H17.4a.6.6 0 0 0 .424-.176M14 13l3 3 .824.824"/></svg>
